resources/icons/20px/unlink.svg

<svg width="20" height="20" viewBox="0 0 20 20" fill="none" xmlns="http://www.w3.org/2000/svg">
<path d="M16 0C18.21 0 20 1.79 20 4C20 5.11 19.54 6.09 18.82 6.82L18.83 6.83L15.83 9.83L15.82 9.82C15.256 10.3842 14.538 10.7693 13.756 10.927L12.824 9.996L17.41 5.41C17.78 5.05 18 4.55 18 4C18 2.9 17.1 2 16 2C15.45 2 14.95 2.22 14.59 2.58L10 7.17L9.073 6.244C9.23067 5.46199 9.61578 4.74396 10.18 4.18L10.17 4.17L13.17 1.17L13.18 1.18C13.91 0.46 14.89 0 16 0ZM10.704 7.876L13.29 5.29C13.3832 5.19676 13.4939 5.1228 13.6158 5.07234C13.7376 5.02188 13.8681 4.99591 14 4.99591C14.1319 4.99591 14.2624 5.02188 14.3842 5.07234C14.5061 5.1228 14.6168 5.19676 14.71 5.29C14.8032 5.38324 14.8772 5.49393 14.9277 5.61575C14.9781 5.73757 15.0041 5.86814 15.0041 6C15.0041 6.13186 14.9781 6.26243 14.9277 6.38425C14.8772 6.50607 14.8032 6.61676 14.71 6.71L12.124 9.296L10.704 7.876ZM8.583 9.997L7.883 9.297L2.59 14.59C2.22 14.95 2 15.45 2 16C2 17.1 2.9 18 4 18C4.55 18 5.05 17.78 5.41 17.42L6.41 16.42L10.708 12.122L10.003 11.417L6.71 14.71C6.5217 14.8983 6.2663 15.0041 6 15.0041C5.7337 15.0041 5.4783 14.8983 5.29 14.71C5.1017 14.5217 4.99591 14.2663 4.99591 14C4.99591 13.8681 5.02188 13.7376 5.07234 13.6158C5.1228 13.4939 5.19676 13.3832 5.29 13.29L8.583 9.997ZM7.649 9.063L3.293 4.707C3.11084 4.5184 3.01005 4.2658 3.01233 4.0036C3.0146 3.7414 3.11977 3.49059 3.30518 3.30518C3.49059 3.11977 3.7414 3.0146 4.0036 3.01233C4.2658 3.01005 4.5184 3.11084 4.707 3.293L16.707 15.293C16.8892 15.4816 16.99 15.7342 16.9877 15.9964C16.9854 16.2586 16.8802 16.5094 16.6948 16.6948C16.5094 16.8802 16.2586 16.9854 15.9964 16.9877C15.7342 16.99 15.4816 16.8892 15.293 16.707L10.937 12.351C10.977 12.561 11 12.774 11 13C11 14.11 10.54 15.09 9.82 15.82L9.83 15.83L6.83 18.83L6.82 18.82C6.09 19.54 5.11 20 4 20C1.79 20 0 18.21 0 16C0 14.89 0.46 13.91 1.18 13.18L1.17 13.17L4.17 10.17L4.18 10.18C4.91 9.46 5.89 9 7 9C7.225 9 7.438 9.023 7.649 9.063Z" fill="black"/>
</svg>

<svg xmlns="http://www.w3.org/2000/svg" viewBox="0 0 20 20">
  <path d="M16 0c2.21 0 4 1.79 4 4 0 1.11-.46 2.09-1.18 2.82l.01.01-3 3-.01-.01a4.05 4.05 0 0 1-2.064 1.107l-.932-.931L17.41 5.41c.37-.36.59-.86.59-1.41 0-1.1-.9-2-2-2-.55 0-1.05.22-1.41.58L10 7.17l-.927-.926A4.05 4.05 0 0 1 10.18 4.18l-.01-.01 3-3 .01.01C13.91.46 14.89 0 16 0m-5.296 7.876L13.29 5.29a1.003 1.003 0 1 1 1.42 1.42l-2.586 2.586zM8.583 9.997l-.7-.7L2.59 14.59c-.37.36-.59.86-.59 1.41 0 1.1.9 2 2 2 .55 0 1.05-.22 1.41-.58l1-1 4.298-4.298-.705-.705L6.71 14.71a1.004 1.004 0 1 1-1.42-1.42zm-.934-.934L3.293 4.707a1 1 0 0 1 1.414-1.414l12 12a1 1 0 0 1-1.414 1.414l-4.356-4.356c.04.21.063.423.063.649 0 1.11-.46 2.09-1.18 2.82l.01.01-3 3-.01-.01C6.09 19.54 5.11 20 4 20c-2.21 0-4-1.79-4-4 0-1.11.46-2.09 1.18-2.82l-.01-.01 3-3 .01.01C4.91 9.46 5.89 9 7 9c.225 0 .438.023.649.063"/>
</svg>
